packages/ffe-icons/icons/filled/md/copyright.svg

<svg xmlns="http://www.w3.org/2000/svg" height="24" viewBox="0 -960 960 960" width="24"><path d="M480.067-100.001q-78.836 0-148.204-29.92-69.369-29.92-120.682-81.21-51.314-51.291-81.247-120.629-29.933-69.337-29.933-148.173t29.92-148.204q29.92-69.369 81.21-120.682 51.291-51.314 120.629-81.247 69.337-29.933 148.173-29.933t148.204 29.92q69.369 29.92 120.682 81.21 51.314 51.291 81.247 120.629 29.933 69.337 29.933 148.173t-29.92 148.204q-29.92 69.369-81.21 120.682-51.291 51.314-120.629 81.247-69.337 29.933-148.173 29.933Zm-80.067-230h160q12.75 0 21.375-8.625 8.624-8.624 8.624-21.374v-40q0-12.75-8.628-21.374-8.629-8.625-21.384-8.625-12.756 0-21.371 8.625-8.615 8.624-8.615 21.374v10.001H429.999v-180.002h100.002V-560q0 12.75 8.628 21.375 8.629 8.624 21.384 8.624 12.756 0 21.371-8.624 8.615-8.625 8.615-21.375v-40q0-12.75-8.624-21.375-8.625-8.624-21.375-8.624H400q-12.75 0-21.374 8.624-8.625 8.625-8.625 21.375v240q0 12.75 8.625 21.374 8.624 8.625 21.374 8.625Z"/></svg>

<svg xmlns="http://www.w3.org/2000/svg" height="24" viewBox="0 -960 960 960" width="24"><path d="M480.07-100q-78.84 0-148.21-29.92t-120.68-81.21q-51.31-51.29-81.25-120.63Q100-401.1 100-479.93q0-78.84 29.92-148.21t81.21-120.68q51.29-51.31 120.63-81.25Q401.1-860 479.93-860q78.84 0 148.21 29.92t120.68 81.21q51.31 51.29 81.25 120.63Q860-558.9 860-480.07q0 78.84-29.92 148.21t-81.21 120.68q-51.29 51.31-120.63 81.25Q558.9-100 480.07-100ZM400-330h160q12.75 0 21.37-8.63Q590-347.25 590-360v-40q0-12.75-8.63-21.37-8.63-8.63-21.38-8.63-12.76 0-21.37 8.63Q530-412.75 530-400v10H430v-180h100v10q0 12.75 8.63 21.37 8.63 8.63 21.38 8.63 12.76 0 21.37-8.63Q590-547.25 590-560v-40q0-12.75-8.63-21.37Q572.75-630 560-630H400q-12.75 0-21.37 8.63Q370-612.75 370-600v240q0 12.75 8.63 21.37Q387.25-330 400-330Z"/></svg>
